X:3744
T:Lodge Road, The
O:england
S:O'Neill's/Sean Maguire
R:set dance
E:7
I:speed 220
M:C
K:D
A|.d2df edcB |.A2 A2 {c}A2F2|DF{d}AF DF{d}AF (3GAG FG E3 A|.d2df edcB |.A2 A2 {c}A2F2|DF{d}AF (3GAG EF|{A}D2 {G}D2 {A}D3:|
A|defg {b}agfe|defg .a2 af|g2 ge f2fd|e.dcB A2 de|.f2 f2.g2 g2|.e2 e2 f2 fe|.df{b}af .df{b}af (3gag fg e2 de|.f2 f2.g2 g2|.e2 e2 f2 fe|df{b}af bgec|dcde dcBA||


